X: 19985
T: Jim Hodder's
R: reel
M: 4/4
K: Edorian
|:E2B,E G2EG|Bc/B/GB d2Bc|dedB AFDF|G/F/E F/E/D EDB,D|
E2B,E G2EG|Bc/B/GB d2Bc|dedB AFDF|1 G/F/E F/E/D EDB,D:|2 G/F/E F/E/D E2Bd||
|:[M:6/4] e3f gfeg fdB2|e3f gfe2 {a}b2{a}b2|e3f gfeg fdBc|1 dedB AFDF E2B/c/d:|2 dedB AFDF EDB,D||

